; generated by PrusaSlicer 2.9.5 on 2026-05-26 at 15:38:16 UTC


;
;
; 

; external perimeters extrusion width = 0.45mm
; perimeters extrusion width = 0.45mm
; infill extrusion width = 0.45mm
; solid infill extrusion width = 0.45mm
; top infill extrusion width = 0.40mm
; support material extrusion width = 0.35mm
; first layer extrusion width = 0.42mm

; external perimeters extrusion width = 0.45mm
; perimeters extrusion width = 0.45mm
; infill extrusion width = 0.45mm
; solid infill extrusion width = 0.45mm
; top infill extrusion width = 0.40mm
; support material extrusion width = 0.35mm
; first layer extrusion width = 0.42mm

; external perimeters extrusion width = 0.45mm
; perimeters extrusion width = 0.45mm
; infill extrusion width = 0.45mm
; solid infill extrusion width = 0.45mm
; top infill extrusion width = 0.40mm
; support material extrusion width = 0.35mm
; first layer extrusion width = 0.42mm

M73 P0 R156
M73 Q0 S160
M201 X1000 Y1000 Z200 E5000 ; sets maximum accelerations, mm/sec^2
M203 X200 Y200 Z12 E120 ; sets maximum feedrates, mm / sec
M204 S1250 T1250 ; sets acceleration (S) and retract acceleration (R), mm/sec^2
M205 X8.00 Y8.00 Z0.40 E4.50 ; sets the jerk limits, mm/sec
M205 S0 T0 ; sets the minimum extruding and travel feed rate, mm/sec

; printing object front_shell.obj id:1 copy 0
; stop printing object front_shell.obj id:1 copy 0
; printing object plunger.obj id:2 copy 0
; stop printing object plunger.obj id:2 copy 0
; printing object back_shell.obj id:0 copy 0
; stop printing object back_shell.obj id:0 copy 0

;TYPE:Custom
M862.3 P "MK3S" ; printer model check
M862.1 P0.4 ; nozzle diameter check
M115 U3.14.1 ; tell printer latest fw version
G90 ; use absolute coordinates
M83 ; extruder relative mode
M104 S210 ; set extruder temp
M140 S60 ; set bed temp
M190 S60 ; wait for bed temp
M109 S210 ; wait for extruder temp
G28 W ; home all without mesh bed level
G80 X3.79475 Y49.4215 W232.206 H111.976 ; mesh bed levelling

G1 Z0.2 F720
G1 Y-3 F1000 ; go outside print area
G92 E0
G1 X60 E9 F1000 ; intro line
G1 X100 E12.5 F1000 ; intro line

G92 E0
M221 S95

; Don't change E values below. Excessive value can damage the printer.
M907 E430 ; set extruder motor current
G21 ; set units to millimeters
G90 ; use absolute coordinates
M83 ; use relative distances for extrusion

M900 K0.05 ; Filament gcode LA 1.5
M900 K30 ; Filament gcode LA 1.0




M107
;LAYER_CHANGE
;Z:0.2
;HEIGHT:0.2
G1 E-.8 F2100
G1 Z.6 F720
G1 X19.101 Y75.047 F10800
G1 Z.2 F720
G1 E.8 F2100
M204 S800
;TYPE:Skirt/Brim
;WIDTH:0.42
G1 F1200
G1 X118.778 Y49.678 E3.22494
G1 X119.318 Y49.61 E.01707
M73 Q0 S159
G1 X127.143 Y49.61 E.24535
G1 X127.72 Y49.688 E.01826
G1 X228.545 Y77.253 E3.27731
G1 X231.191 Y78.173 E.08784
G1 X231.926 Y78.607 E.02676
G1 X233.439 Y79.959 E.06362
G1 X233.953 Y80.642 E.0268
G1 X235.339 Y83.521 E.10018
G1 X235.501 Y83.984 E.01538
G1 X235.812 Y85.591 E.05132
G1 X235.812 Y152.516 E2.09839
G1 X235.545 Y154.086 E.04993
G1 X234.671 Y156.587 E.08307
G1 X234.237 Y157.322 E.02676
G1 X232.885 Y158.836 E.06364
G1 X232.202 Y159.35 E.0268
G1 X229.322 Y160.737 E.10023
G1 X228.859 Y160.898 E.01537
G1 X227.252 Y161.209 E.05132
G1 X126.887 Y161.209 E3.14687
G1 X12.539 Y161.001 E3.58531
G1 X10.935 Y160.691 E.05122
G1 X10.473 Y160.529 E.01535
G1 X7.593 Y159.142 E.10023
G1 X6.911 Y158.629 E.02676
G1 X5.559 Y157.116 E.06362
G1 X5.125 Y156.38 E.02679
G1 X4.25 Y153.88 E.08305
G1 X3.983 Y152.309 E.04996
G1 X3.983 Y85.384 E2.09839
G1 X4.038 Y84.897 E.01537
G1 X4.456 Y83.314 E.05134
G1 X5.843 Y80.434 E.10023
G1 X6.356 Y79.752 E.02676
G1 X7.869 Y78.4 E.06362
G1 X8.604 Y77.966 E.02676
G1 X11.288 Y77.036 E.08906
G1 X19.043 Y75.062 E.25091
M204 S1000
;WIPE_START
G1 F8640
G1 X19.101 Y75.047 E-.01383
G1 X22.401 Y74.207 E-.78617
;WIPE_END
G1 Z.6 F720
G1 X120.67 Y85.801 F10800
G1 Z.2 F720
G1 E.8 F2100
M204 S800
G1 F1200
G1 X121.394 Y83.247 E.08323
G1 X122.187 Y81.929 E.04823
G1 X123.37 Y80.91 E.04896
G1 X125.526 Y79.852 E.0753
G1 X127.003 Y79.511 E.04753
G1 X153.367 Y79.51 E.82662
G1 X154.639 Y79.794 E.04086
G1 X155.654 Y80.31 E.0357
G1 X156.296 Y80.907 E.02749
G1 X156.592 Y80.603 E.0133
G1 X157.489 Y80.012 E.03368
G1 X159.224 Y79.507 E.05666
G1 X194.836 Y79.515 E1.11659
G1 X196.523 Y80.015 E.05517
G1 X197.456 Y80.639 E.03519
G1 X197.695 Y80.881 E.01066
G1 X197.967 Y80.603 E.01219
G1 X198.865 Y80.012 E.03371
G1 X200.6 Y79.507 E.05666
G1 X227.043 Y79.507 E.8291
G1 X229.622 Y80.238 E.08405
G1 X231.275 Y81.355 E.06255
G1 X232.053 Y82.399 E.04082
G1 X232.994 Y84.369 E.06845
G1 X233.337 Y85.881 E.04861
G1 X233.337 Y116.212 E.95101
G1 X232.828 Y117.953 E.05687
G1 X232.205 Y118.885 E.03515
G1 X231.962 Y119.124 E.01069
G1 X232.24 Y119.396 E.01219
G1 X232.831 Y120.294 E.03371
G1 X233.337 Y122.029 E.05667
G1 X233.337 Y152.439 E.95348
G1 X232.606 Y155.018 E.08405
M73 P0 R155
G1 X231.489 Y156.672 E.06258
G1 X230.444 Y157.45 E.04085
G1 X228.474 Y158.391 E.06845
G1 X226.962 Y158.734 E.04861
G1 X200.6 Y158.734 E.82656
G1 X198.859 Y158.225 E.05687
G1 X197.926 Y157.602 E.03518
G1 X197.688 Y157.359 E.01066
G1 X197.415 Y157.637 E.01222
G1 X196.518 Y158.228 E.03368
G1 X194.783 Y158.734 E.05667
G1 X159.224 Y158.734 E1.11493
G1 X157.483 Y158.225 E.05687
G1 X156.55 Y157.602 E.03518
G1 X156.312 Y157.359 E.01066
G1 X156.039 Y157.637 E.01222
G1 X155.142 Y158.228 E.03368
G1 X153.407 Y158.734 E.05667
G1 X126.964 Y158.734 E.8291
G1 X124.385 Y158.002 E.08406
G1 X122.731 Y156.885 E.06258
G1 X121.954 Y155.841 E.0408
G1 X121.013 Y153.871 E.06845
G1 X120.67 Y152.359 E.04861
G1 X120.67 Y122.029 E.95098
G1 X121.179 Y120.288 E.05687
G1 X121.802 Y119.355 E.03518
G1 X122.045 Y119.117 E.01066
G1 X121.767 Y118.844 E.01222
G1 X121.176 Y117.947 E.03368
G1 X120.67 Y116.212 E.05667
G1 X120.67 Y85.861 E.95163
M204 S1000
G1 X121.047 Y85.861 F10800
M204 S800
G1 F1200
G1 X121.047 Y85.828 E.00103
G1 X121.749 Y83.375 E.08
G1 X122.458 Y82.194 E.04319
G1 X123.558 Y81.237 E.04572
G1 X125.672 Y80.2 E.07383
G1 X127.024 Y79.889 E.0435
G1 X153.347 Y79.888 E.82534
G1 X154.489 Y80.141 E.03667
G1 X155.458 Y80.633 E.03407
G1 X156.313 Y81.447 E.03701
G1 X156.821 Y80.903 E.02334
G1 X157.624 Y80.366 E.03029
G1 X159.251 Y79.884 E.0532
G1 X194.755 Y79.884 E1.1132
G1 X196.387 Y80.368 E.05337
G1 X197.224 Y80.936 E.03172
G1 X197.693 Y81.442 E.02163
G1 X198.197 Y80.903 E.02314
G1 X199 Y80.366 E.03029
G1 X200.627 Y79.884 E.0532
G1 X227.016 Y79.884 E.82741
G1 X229.488 Y80.592 E.08062
G1 X231.036 Y81.648 E.05875
G1 X231.72 Y82.578 E.0362
G1 X232.645 Y84.513 E.06725
G1 X232.96 Y85.902 E.04466
G1 X232.96 Y116.184 E.94947
G1 X232.475 Y117.816 E.05338
G1 X231.907 Y118.653 E.03172
G1 X231.402 Y119.122 E.02161
G1 X231.941 Y119.626 E.02314
G1 X232.478 Y120.429 E.03029
G1 X232.96 Y122.056 E.0532
G1 X232.96 Y152.413 E.95182
G1 X232.252 Y154.884 E.08059
G1 X231.196 Y156.433 E.05878
G1 X230.266 Y157.117 E.0362
G1 X228.331 Y158.042 E.06725
G1 X226.941 Y158.357 E.04469
G1 X200.627 Y158.357 E.82506
G1 X198.995 Y157.872 E.05338
G1 X198.159 Y157.304 E.03169
G1 X197.69 Y156.799 E.02161
G1 X197.185 Y157.337 E.02314
G1 X196.382 Y157.875 E.03031
G1 X194.755 Y158.357 E.0532
G1 X159.251 Y158.357 E1.1132
G1 X157.619 Y157.872 E.05338
G1 X156.783 Y157.304 E.03169
M73 Q0 S158
G1 X156.314 Y156.799 E.02161
G1 X155.809 Y157.337 E.02314
G1 X155.006 Y157.875 E.03031
G1 X153.379 Y158.357 E.0532
G1 X126.991 Y158.357 E.82738
G1 X124.518 Y157.648 E.08066
G1 X122.971 Y156.592 E.05873
G1 X122.287 Y155.663 E.03617
G1 X121.362 Y153.728 E.06725
G1 X121.047 Y152.338 E.04469
G1 X121.047 Y122.056 E.94947
G1 X121.531 Y120.424 E.05337
G1 X122.099 Y119.588 E.03169
G1 X122.605 Y119.119 E.02163
G1 X122.066 Y118.614 E.02316
G1 X121.529 Y117.811 E.03029
G1 X121.047 Y116.184 E.0532
G1 X121.047 Y85.921 E.94888
M204 S1000
G1 X121.424 Y85.921 F10800
M204 S800
G1 F1200
G1 X121.424 Y85.855 E.00207
G1 X122.104 Y83.504 E.07674
G1 X122.764 Y82.416 E.0399
G1 X123.785 Y81.54 E.04218
G1 X125.818 Y80.549 E.07091
G1 X127.087 Y80.261 E.0408
G1 X153.327 Y80.265 E.82274
G1 X154.34 Y80.488 E.03252
G1 X155.261 Y80.956 E.03239
G1 X156.329 Y81.989 E.04659
G1 X157.05 Y81.203 E.03344
G1 X157.81 Y80.695 E.02866
G1 X159.279 Y80.261 E.04803
G1 X194.728 Y80.261 E1.11148
G1 X196.2 Y80.697 E.04814
G1 X196.993 Y81.235 E.03005
G1 X197.691 Y82.004 E.03256
G1 X198.426 Y81.203 E.03409
G1 X199.186 Y80.695 E.02866
G1 X200.655 Y80.261 E.04803
G1 X226.989 Y80.261 E.82568
G1 X229.354 Y80.946 E.0772
G1 X230.752 Y81.898 E.05303
G1 X231.388 Y82.757 E.03351
G1 X232.296 Y84.656 E.066
G1 X232.583 Y85.923 E.04073
G1 X232.583 Y116.157 E.94797
G1 X232.147 Y117.629 E.04814
G1 X231.608 Y118.422 E.03006
G1 X230.84 Y119.12 E.03254
G1 X231.64 Y119.855 E.03406
G1 X232.149 Y120.615 E.02868
G1 X232.583 Y122.083 E.048
G1 X232.583 Y152.386 E.95013
G1 X231.898 Y154.751 E.0772
G1 X230.946 Y156.149 E.05303
G1 X230.087 Y156.785 E.03351
G1 X228.187 Y157.693 E.06603
G1 X226.92 Y157.98 E.04073
G1 X200.655 Y157.98 E.82352
G1 X199.183 Y157.544 E.04814
G1 X198.39 Y157.005 E.03006
G1 X197.692 Y156.237 E.03254
G1 X196.956 Y157.037 E.03408
G1 X196.196 Y157.546 E.02868
G1 X194.728 Y157.98 E.048
G1 X159.279 Y157.98 E1.11148
G1 X157.807 Y157.544 E.04814
G1 X157.014 Y157.005 E.03006
G1 X156.316 Y156.237 E.03254
G1 X155.58 Y157.037 E.03408
G1 X154.82 Y157.546 E.02868
G1 X153.352 Y157.98 E.048
G1 X127.018 Y157.98 E.82568
G1 X124.652 Y157.295 E.07723
G1 X123.255 Y156.342 E.05302
G1 X122.619 Y155.484 E.03349
G1 X121.711 Y153.584 E.06603
G1 X121.424 Y152.317 E.04073
G1 X121.424 Y122.083 E.94797
G1 X121.86 Y120.612 E.04811
G1 X122.398 Y119.819 E.03005
G1 X123.167 Y119.12 E.03258
M73 P1 R155
G1 X122.367 Y118.385 E.03406
G1 X121.858 Y117.625 E.02868
G1 X121.424 Y116.157 E.048
G1 X121.424 Y85.981 E.94615
M204 S1000
G1 X121.801 Y85.981 F10800
M73 Q1 S158
M204 S800
G1 F1200
G1 X121.801 Y85.882 E.0031
G1 X122.459 Y83.635 E.07341
G1 X123.069 Y82.639 E.03662
G1 X124.01 Y81.843 E.03864
G1 X125.962 Y80.898 E.068
G1 X127.108 Y80.638 E.03685
G1 X153.305 Y80.642 E.82139
G1 X154.233 Y80.851 E.02983
G1 X155.063 Y81.278 E.02927
G1 X155.962 Y82.16 E.03949
G1 X156.311 Y82.796 E.02275
G1 X156.609 Y82.243 E.0197
G1 X157.28 Y81.504 E.0313
G1 X157.996 Y81.024 E.02703
G1 X159.306 Y80.638 E.04282
G1 X194.701 Y80.638 E1.10979
G1 X196.012 Y81.025 E.04286
G1 X196.762 Y81.534 E.02842
G1 X197.399 Y82.245 E.02993
G1 X197.691 Y82.788 E.01933
G1 X197.985 Y82.244 E.01939
G1 X198.656 Y81.504 E.03132
G1 X199.372 Y81.024 E.02703
G1 X200.682 Y80.638 E.04282
G1 X226.962 Y80.638 E.82399
G1 X229.22 Y81.299 E.07377
G1 X230.469 Y82.149 E.04737
G1 X231.056 Y82.936 E.03078
G1 X231.946 Y84.8 E.06476
G1 X232.206 Y85.944 E.03678
G1 X232.206 Y116.13 E.94646
G1 X231.819 Y117.441 E.04286
G1 X231.31 Y118.19 E.02839
G1 X230.599 Y118.828 E.02995
G1 X230.056 Y119.12 E.01933
G1 X230.6 Y119.414 E.01939
G1 X231.34 Y120.085 E.03132
G1 X231.82 Y120.801 E.02703
G1 X232.206 Y122.11 E.04279
G1 X232.206 Y152.359 E.94844
G1 X231.545 Y154.616 E.07374
G1 X230.695 Y155.866 E.0474
G1 X229.908 Y156.453 E.03078
G1 X228.043 Y157.343 E.06479
G1 X226.899 Y157.603 E.03678
G1 X200.682 Y157.603 E.82202
G1 X199.371 Y157.216 E.04286
G1 X198.621 Y156.707 E.02842
G1 X197.984 Y155.996 E.02993
G1 X197.692 Y155.453 E.01933
G1 X197.398 Y155.997 E.01939
G1 X196.727 Y156.737 E.03132
G1 X196.01 Y157.216 E.02704
G1 X194.701 Y157.603 E.0428
G1 X159.306 Y157.603 E1.10979
G1 X157.995 Y157.216 E.04286
M73 P1 R154
G1 X157.245 Y156.707 E.02842
G1 X156.608 Y155.996 E.02993
G1 X156.316 Y155.453 E.01933
G1 X156.022 Y155.997 E.01939
G1 X155.351 Y156.737 E.03132
G1 X154.634 Y157.216 E.02704
G1 X153.325 Y157.603 E.0428
G1 X127.045 Y157.603 E.82399
G1 X124.787 Y156.941 E.07378
G1 X123.538 Y156.091 E.04737
G1 X122.951 Y155.304 E.03078
G1 X122.06 Y153.441 E.06475
G1 X121.801 Y152.296 E.03681
G1 X121.801 Y122.111 E.94643
G1 X122.188 Y120.799 E.04289
G1 X122.697 Y120.05 E.02839
G1 X123.408 Y119.413 E.02993
G1 X123.951 Y119.12 E.01935
G1 X123.407 Y118.827 E.01937
G1 X122.667 Y118.156 E.03132
G1 X122.187 Y117.439 E.02705
G1 X121.801 Y116.13 E.04279
G1 X121.801 Y86.041 E.94342
M204 S1000
G1 X122.178 Y86.041 F10800
M204 S800
G1 F1200
G1 X122.178 Y85.909 E.00414
G1 X122.813 Y83.767 E.07005
G1 X123.373 Y82.865 E.03329
G1 X124.232 Y82.148 E.03508
G1 X126.106 Y81.247 E.0652
G1 X127.129 Y81.015 E.03289
G1 X153.283 Y81.019 E.82004
G1 X154.124 Y81.212 E.02705
G1 X154.862 Y81.598 E.02611
G1 X155.674 Y82.405 E.03589
G1 X156.087 Y83.197 E.02801
G1 X156.173 Y83.513 E.01027
G1 X156.461 Y83.513 E.00903
G1 X156.559 Y83.157 E.01158
G1 X156.906 Y82.477 E.02394
G1 X157.543 Y81.775 E.02972
G1 X158.18 Y81.354 E.02394
G1 X159.333 Y81.015 E.03768
G1 X194.674 Y81.015 E1.10809
G1 X195.827 Y81.354 E.03768
G1 X196.497 Y81.804 E.02531
G1 X197.1 Y82.477 E.02833
G1 X197.448 Y83.157 E.02395
G1 X197.548 Y83.52 E.01181
G1 X197.835 Y83.52 E.009
G1 X197.935 Y83.157 E.01181
G1 X198.282 Y82.477 E.02394
G1 X198.919 Y81.775 E.02972
G1 X199.556 Y81.354 E.02394
G1 X200.709 Y81.015 E.03768
G1 X226.934 Y81.015 E.82227
G1 X229.085 Y81.652 E.07034
G1 X230.186 Y82.401 E.04175
G1 X230.724 Y83.116 E.02806
G1 X231.597 Y84.944 E.06352
G1 X231.829 Y85.965 E.03283
G1 X231.829 Y116.103 E.94496
G1 X231.489 Y117.256 E.03769
G1 X231.04 Y117.926 E.02529
G1 X230.367 Y118.529 E.02833
G1 X229.687 Y118.877 E.02395
G1 X229.323 Y118.977 E.01184
G1 X229.323 Y119.264 E.009
G1 X229.687 Y119.364 E.01184
G1 X230.367 Y119.711 E.02394
G1 X231.069 Y120.348 E.02972
G1 X231.489 Y120.985 E.02392
G1 X231.829 Y122.137 E.03766
G1 X231.829 Y152.331 E.94671
G1 X231.192 Y154.481 E.07031
G1 X230.443 Y155.583 E.04178
G1 X229.728 Y156.121 E.02806
G1 X227.9 Y156.994 E.06352
G1 X226.878 Y157.225 E.03285
G1 X200.709 Y157.225 E.82051
G1 X199.556 Y156.886 E.03768
G1 X198.886 Y156.437 E.02529
G1 X198.282 Y155.764 E.02835
G1 X197.935 Y155.084 E.02394
G1 X197.835 Y154.72 E.01184
G1 X197.548 Y154.72 E.009
G1 X197.448 Y155.084 E.01184
G1 X197.1 Y155.764 E.02395
G1 X196.464 Y156.466 E.0297
G1 X195.827 Y156.886 E.02392
G1 X194.674 Y157.225 E.03768
G1 X159.333 Y157.225 E1.10809
G1 X158.18 Y156.886 E.03768
G1 X157.51 Y156.437 E.02529
G1 X156.906 Y155.764 E.02835
G1 X156.559 Y155.084 E.02394
G1 X156.459 Y154.72 E.01184
G1 X156.172 Y154.72 E.009
G1 X156.072 Y155.084 E.01184
G1 X155.724 Y155.764 E.02395
G1 X155.088 Y156.466 E.0297
G1 X154.451 Y156.886 E.02392
G1 X153.298 Y157.225 E.03768
G1 X127.072 Y157.225 E.8223
G1 X124.922 Y156.588 E.07031
G1 X123.82 Y155.84 E.04176
G1 X123.283 Y155.125 E.02804
G1 X122.41 Y153.297 E.06352
G1 X122.178 Y152.275 E.03286
G1 X122.178 Y122.137 E.94496
G1 X122.518 Y120.985 E.03766
M73 Q1 S157
G1 X122.967 Y120.315 E.02529
G1 X123.64 Y119.711 E.02835
G1 X124.32 Y119.364 E.02394
G1 X124.683 Y119.264 E.01181
G1 X124.683 Y118.977 E.009
G1 X124.32 Y118.877 E.01181
G1 X123.64 Y118.529 E.02395
G1 X122.938 Y117.893 E.0297
G1 X122.518 Y117.256 E.02392
G1 X122.178 Y116.103 E.03769
G1 X122.178 Y86.101 E.94069
M204 S1000
G1 X122.555 Y86.101 F10800
M204 S800
G1 F1200
G1 X122.555 Y85.937 E.00514
G1 X123.167 Y83.901 E.06666
G1 X123.675 Y83.091 E.02998
G1 X124.416 Y82.478 E.03015
G1 X126.251 Y81.596 E.06384
G1 X127.15 Y81.392 E.0289
G1 X153.262 Y81.396 E.81872
G1 X153.974 Y81.559 E.0229
G1 X154.62 Y81.889 E.02274
G1 X155.354 Y82.606 E.03217
G1 X155.741 Y83.349 E.02627
G1 X155.9 Y83.992 E.02077
G1 X156.73 Y83.992 E.02602
G1 X156.905 Y83.308 E.02214
G1 X157.231 Y82.671 E.02244
G1 X157.773 Y82.074 E.02528
G1 X158.318 Y81.707 E.0206
G1 X159.361 Y81.392 E.03416
G1 X194.646 Y81.392 E1.10634
G1 X195.689 Y81.706 E.03415
G1 X196.265 Y82.101 E.0219
G1 X196.776 Y82.67 E.02398
G1 X197.102 Y83.308 E.02246
G1 X197.276 Y83.992 E.02213
G1 X198.106 Y83.992 E.02602
G1 X198.281 Y83.308 E.02214
G1 X198.607 Y82.671 E.02244
G1 X199.149 Y82.074 E.02528
G1 X199.694 Y81.707 E.0206
G1 X200.737 Y81.392 E.03416
G1 X226.907 Y81.392 E.82054
G1 X228.949 Y82.005 E.06685
G1 X229.905 Y82.654 E.03623
G1 X230.392 Y83.296 E.02527
G1 X231.248 Y85.087 E.06224
G1 X231.451 Y85.986 E.0289
G1 X231.451 Y116.075 E.94342
G1 X231.137 Y117.117 E.03412
G1 X230.742 Y117.693 E.0219
G1 X230.173 Y118.205 E.024
G1 X229.536 Y118.53 E.02242
G1 X228.851 Y118.705 E.02217
