; generated by PrusaSlicer 2.9.5 on 2026-06-04 at 01:47:40 UTC


;
;
; 

; external perimeters extrusion width = 0.45mm
; perimeters extrusion width = 0.45mm
; infill extrusion width = 0.45mm
; solid infill extrusion width = 0.45mm
; top infill extrusion width = 0.40mm
; support material extrusion width = 0.35mm
; first layer extrusion width = 0.42mm

M73 P0 R55
M73 Q0 S56
M201 X1000 Y1000 Z200 E5000 ; sets maximum accelerations, mm/sec^2
M203 X200 Y200 Z12 E120 ; sets maximum feedrates, mm / sec
M204 S1250 T1250 ; sets acceleration (S) and retract acceleration (R), mm/sec^2
M205 X8.00 Y8.00 Z0.40 E4.50 ; sets the jerk limits, mm/sec
M205 S0 T0 ; sets the minimum extruding and travel feed rate, mm/sec

; printing object front_shell.stl id:0 copy 0
; stop printing object front_shell.stl id:0 copy 0

;TYPE:Custom
M862.3 P "MK3S" ; printer model check
M862.1 P0.4 ; nozzle diameter check
M115 U3.14.1 ; tell printer latest fw version
G90 ; use absolute coordinates
M83 ; extruder relative mode
M104 S215 ; set extruder temp
M140 S60 ; set bed temp
M190 S60 ; wait for bed temp
M109 S215 ; wait for extruder temp
G28 W ; home all without mesh bed level
G80 X67.9029 Y59.8791 W114.194 H36.5767 ; mesh bed levelling

G1 Z0.2 F720
G1 Y-3 F1000 ; go outside print area
G92 E0
G1 X60 E9 F1000 ; intro line
G1 X100 E12.5 F1000 ; intro line

G92 E0
M221 S95

; Don't change E values below. Excessive value can damage the printer.
M907 E430 ; set extruder motor current
G21 ; set units to millimeters
G90 ; use absolute coordinates
M83 ; use relative distances for extrusion

M900 K0.05 ; Filament gcode LA 1.5
M900 K30 ; Filament gcode LA 1.0




M107
;LAYER_CHANGE
;Z:0.2
;HEIGHT:0.2
G1 E-.8 F2100
M73 Q0 S55
G1 Z.6 F720
G1 X69.118 Y61.764 F10800
G1 Z.2 F720
G1 E.8 F2100
M204 S800
;TYPE:Skirt/Brim
;WIDTH:0.42
G1 F1200
G1 X69.767 Y61.037 E.03056
G1 X71.33 Y60.284 E.0544
G1 X72.28 Y60.068 E.03055
G1 X177.72 Y60.068 E3.306
G1 X178.443 Y60.19 E.02299
G1 X179.69 Y60.627 E.04143
G1 X180.939 Y61.743 E.05252
G1 X181.692 Y63.307 E.05443
G1 X181.909 Y64.256 E.03052
G1 X181.909 Y94.079 E.93508
G1 X181.518 Y95.327 E.04101
G1 X180.485 Y96.129 E.041
G1 X179.72 Y96.267 E.02437
G1 X70.28 Y96.267 E3.43141
G1 X69.032 Y95.876 E.04101
G1 X68.229 Y94.843 E.04102
G1 X68.091 Y94.079 E.02434
G1 X68.091 Y64.256 E.93508
G1 X68.214 Y63.534 E.02296
G1 X68.651 Y62.286 E.04146
G1 X69.078 Y61.809 E.02007
M204 S1000
;WIPE_START
G1 F8640
G1 X69.118 Y61.764 E-.0139
G1 X69.767 Y61.037 E-.22502
G1 X71.33 Y60.284 E-.4006
G1 X72.008 Y60.13 E-.16048
;WIPE_END
G1 Z.6 F720
; printing object front_shell.stl id:0 copy 0
G1 X147.014 Y65.473 F10800
G1 Z.2 F720
G1 E.8 F2100
M204 S800
;TYPE:Perimeter
;WIDTH:0.419999
G1 F1200
G1 X147.1 Y65.368 E.00426
G1 X147.177 Y65.082 E.00929
G1 X147.177 Y63.048 E.06377
G1 X177.586 Y63.048 E.95345
G1 X178.399 Y63.332 E.027
G1 X178.933 Y64.44 E.03856
G1 X178.933 Y68.961 E.14175
G1 X71.067 Y68.961 E3.38206
G1 X71.067 Y64.394 E.14319
G1 X71.352 Y63.581 E.02701
G1 X72.46 Y63.048 E.03855
G1 X102.823 Y63.048 E.95201
G1 X102.823 Y65.198 E.06741
G1 X103.011 Y65.503 E.01123
G1 X103.18 Y65.608 E.00624
G1 X103.389 Y65.648 E.00667
G1 X110.212 Y65.648 E.21393
G1 X110.509 Y65.503 E.01036
G1 X110.62 Y65.368 E.00548
G1 X110.697 Y65.082 E.00929
G1 X110.697 Y63.048 E.06377
G1 X139.303 Y63.048 E.89692
G1 X139.303 Y65.198 E.06741
M73 P1 R55
M73 Q1 S55
G1 X139.491 Y65.503 E.01123
G1 X139.66 Y65.608 E.00624
G1 X139.869 Y65.648 E.00667
G1 X146.692 Y65.648 E.21393
G1 X146.971 Y65.512 E.00973
M204 S1000
G1 X146.755 Y65.184 F10800
M204 S800
;TYPE:External perimeter
G1 F1200
G1 X146.8 Y65.082 E.0035
G1 X146.8 Y62.671 E.0756
G1 X177.65 Y62.671 E.96728
G1 X178.671 Y63.028 E.03391
G1 X179.31 Y64.354 E.04615
G1 X179.31 Y69.338 E.15627
G1 X70.69 Y69.338 E3.4057
G1 X70.69 Y64.33 E.15702
G1 X71.047 Y63.309 E.03391
G1 X72.374 Y62.671 E.04617
G1 X103.2 Y62.671 E.96653
G1 X103.2 Y65.082 E.0756
M73 P1 R54
G1 X103.263 Y65.223 E.00484
G1 X103.389 Y65.271 E.00423
G1 X110.131 Y65.271 E.21139
G1 X110.257 Y65.223 E.00423
G1 X110.32 Y65.082 E.00484
G1 X110.32 Y62.671 E.0756
G1 X139.68 Y62.671 E.92056
G1 X139.68 Y65.082 E.0756
G1 X139.743 Y65.223 E.00484
G1 X139.869 Y65.271 E.00423
G1 X146.611 Y65.271 E.21139
G1 X146.721 Y65.229 E.00369
M204 S1000
;WIPE_START
G1 F8640
G1 X146.755 Y65.184 E-.01302
G1 X146.8 Y65.082 E-.02574
G1 X146.8 Y62.671 E-.55671
G1 X147.686 Y62.671 E-.20453
;WIPE_END
G1 Z.6 F720
G1 X178.782 Y64.72 F10800
G1 Z.2 F720
G1 E.8 F2100
M204 S800
;TYPE:Solid infill
;WIDTH:0.421712
G1 F1200
G1 X177.43 Y63.368 E.06022
G1 X176.894 Y63.368 E.01688
G1 X178.612 Y65.086 E.07652
G1 X178.612 Y65.622 E.01688
G1 X176.359 Y63.368 E.10038
G1 X175.823 Y63.368 E.01688
G1 X178.612 Y66.158 E.12425
G1 X178.612 Y66.693 E.01685
G1 X175.287 Y63.368 E.14811
G1 X174.752 Y63.368 E.01685
G1 X178.612 Y67.229 E.17196
G1 X178.612 Y67.765 E.01688
G1 X174.216 Y63.368 E.19583
G1 X173.68 Y63.368 E.01688
G1 X178.612 Y68.3 E.21969
G1 X178.612 Y68.641 E.01074
G1 X178.417 Y68.641 E.00614
G1 X173.144 Y63.368 E.23488
G1 X172.609 Y63.368 E.01685
G1 X177.881 Y68.641 E.23485
G1 X177.346 Y68.641 E.01685
G1 X172.073 Y63.368 E.23488
G1 X171.537 Y63.368 E.01688
G1 X176.81 Y68.641 E.23488
G1 X176.274 Y68.641 E.01688
G1 X171.002 Y63.368 E.23485
G1 X170.466 Y63.368 E.01688
G1 X175.738 Y68.641 E.23485
G1 X175.203 Y68.641 E.01685
G1 X169.93 Y63.368 E.23488
G1 X169.395 Y63.368 E.01685
G1 X174.667 Y68.641 E.23485
G1 X174.131 Y68.641 E.01688
G1 X168.859 Y63.368 E.23485
G1 X168.323 Y63.368 E.01688
G1 X173.596 Y68.641 E.23488
G1 X173.06 Y68.641 E.01688
G1 X167.788 Y63.368 E.23485
G1 X167.252 Y63.368 E.01688
G1 X172.524 Y68.641 E.23485
G1 X171.989 Y68.641 E.01685
G1 X166.716 Y63.368 E.23488
G1 X166.18 Y63.368 E.01688
G1 X171.453 Y68.641 E.23488
G1 X170.917 Y68.641 E.01688
G1 X165.645 Y63.368 E.23485
G1 X165.109 Y63.368 E.01688
G1 X170.382 Y68.641 E.23488
G1 X169.846 Y68.641 E.01688
G1 X164.573 Y63.368 E.23488
G1 X164.038 Y63.368 E.01685
G1 X169.31 Y68.641 E.23485
G1 X168.774 Y68.641 E.01688
G1 X163.502 Y63.368 E.23485
G1 X162.966 Y63.368 E.01688
G1 X168.239 Y68.641 E.23488
G1 X167.703 Y68.641 E.01688
G1 X162.431 Y63.368 E.23485
G1 X161.895 Y63.368 E.01688
G1 X167.167 Y68.641 E.23485
G1 X166.632 Y68.641 E.01685
G1 X161.359 Y63.368 E.23488
G1 X160.824 Y63.368 E.01685
G1 X166.096 Y68.641 E.23485
G1 X165.56 Y68.641 E.01688
G1 X160.288 Y63.368 E.23485
G1 X159.752 Y63.368 E.01688
G1 X165.025 Y68.641 E.23488
G1 X164.489 Y68.641 E.01688
G1 X159.216 Y63.368 E.23488
G1 X158.681 Y63.368 E.01685
G1 X163.953 Y68.641 E.23485
G1 X163.418 Y68.641 E.01685
G1 X158.145 Y63.368 E.23488
G1 X157.609 Y63.368 E.01688
G1 X162.882 Y68.641 E.23488
G1 X162.346 Y68.641 E.01688
G1 X157.074 Y63.368 E.23485
G1 X156.538 Y63.368 E.01688
G1 X161.81 Y68.641 E.23485
G1 X161.275 Y68.641 E.01685
G1 X156.002 Y63.368 E.23488
G1 X155.467 Y63.368 E.01685
G1 X160.739 Y68.641 E.23485
G1 X160.203 Y68.641 E.01688
G1 X154.931 Y63.368 E.23485
G1 X154.395 Y63.368 E.01688
G1 X159.668 Y68.641 E.23488
G1 X159.132 Y68.641 E.01688
G1 X153.86 Y63.368 E.23485
G1 X153.324 Y63.368 E.01688
G1 X158.596 Y68.641 E.23485
G1 X158.061 Y68.641 E.01685
M73 Q1 S54
G1 X152.788 Y63.368 E.23488
G1 X152.252 Y63.368 E.01688
G1 X157.525 Y68.641 E.23488
G1 X156.989 Y68.641 E.01688
G1 X151.717 Y63.368 E.23485
G1 X151.181 Y63.368 E.01688
G1 X156.454 Y68.641 E.23488
G1 X155.918 Y68.641 E.01688
G1 X150.645 Y63.368 E.23488
G1 X150.11 Y63.368 E.01685
M73 P2 R54
M73 Q2 S54
G1 X155.382 Y68.641 E.23485
G1 X154.846 Y68.641 E.01688
G1 X149.574 Y63.368 E.23485
G1 X149.038 Y63.368 E.01688
G1 X154.311 Y68.641 E.23488
G1 X153.775 Y68.641 E.01688
G1 X148.503 Y63.368 E.23485
G1 X147.967 Y63.368 E.01688
G1 X153.239 Y68.641 E.23485
G1 X152.704 Y68.641 E.01685
G1 X147.498 Y63.435 E.23189
G1 X147.498 Y63.97 E.01685
G1 X152.168 Y68.641 E.20804
G1 X151.632 Y68.641 E.01688
G1 X147.498 Y64.506 E.18416
G1 X147.498 Y65.042 E.01688
G1 X151.097 Y68.641 E.16031
G1 X150.561 Y68.641 E.01688
G1 X147.399 Y65.479 E.14085
G1 X147.377 Y65.532 E.00181
G1 X147.203 Y65.745 E.00866
G1 X147.157 Y65.773 E.0017
G1 X150.025 Y68.641 E.12775
G1 X149.49 Y68.641 E.01685
G1 X146.796 Y65.947 E.12
G1 X146.617 Y65.968 E.00568
G1 X146.282 Y65.968 E.01055
G1 X148.954 Y68.641 E.11904
G1 X148.418 Y68.641 E.01688
G1 X145.746 Y65.968 E.11904
G1 X145.21 Y65.968 E.01688
G1 X147.882 Y68.641 E.11904
G1 X147.347 Y68.641 E.01685
G1 X144.675 Y65.968 E.11904
G1 X144.139 Y65.968 E.01688
G1 X146.811 Y68.641 E.11904
G1 X146.275 Y68.641 E.01688
G1 X143.603 Y65.968 E.11904
G1 X143.067 Y65.968 E.01688
G1 X145.74 Y68.641 E.11906
G1 X145.204 Y68.641 E.01688
G1 X142.532 Y65.968 E.11904
G1 X141.996 Y65.968 E.01688
G1 X144.668 Y68.641 E.11904
G1 X144.133 Y68.641 E.01685
G1 X141.46 Y65.968 E.11906
G1 X140.925 Y65.968 E.01685
G1 X143.597 Y68.641 E.11904
G1 X143.061 Y68.641 E.01688
G1 X140.219 Y65.799 E.12659
M204 S1000
;WIPE_START
G1 F8640
G1 X142.669 Y68.249 E-.8
;WIPE_END
G1 Z.6 F720
G1 X139.152 Y63.66 F10800
G1 Z.2 F720
G1 E.8 F2100
M204 S800
G1 F1200
G1 X138.86 Y63.368 E.01301
G1 X138.324 Y63.368 E.01688
G1 X138.982 Y64.026 E.02931
G1 X138.982 Y64.562 E.01688
G1 X137.789 Y63.368 E.05316
G1 X137.253 Y63.368 E.01688
G1 X138.983 Y65.098 E.07706
G1 X139.012 Y65.314 E.00686
G1 X139.103 Y65.532 E.00744
G1 X139.277 Y65.745 E.00866
G1 X139.542 Y65.908 E.0098
G1 X139.853 Y65.968 E.00998
G1 X142.526 Y68.641 E.11906
G1 X141.99 Y68.641 E.01688
G1 X136.717 Y63.368 E.23488
G1 X136.182 Y63.368 E.01685
G1 X141.454 Y68.641 E.23485
G1 X140.918 Y68.641 E.01688
G1 X135.646 Y63.368 E.23485
G1 X135.11 Y63.368 E.01688
G1 X140.383 Y68.641 E.23488
G1 X139.847 Y68.641 E.01688
G1 X134.575 Y63.368 E.23485
G1 X134.039 Y63.368 E.01688
G1 X139.311 Y68.641 E.23485
G1 X138.776 Y68.641 E.01685
G1 X133.503 Y63.368 E.23488
G1 X132.968 Y63.368 E.01685
G1 X138.24 Y68.641 E.23485
G1 X137.704 Y68.641 E.01688
G1 X132.432 Y63.368 E.23485
G1 X131.896 Y63.368 E.01688
G1 X137.169 Y68.641 E.23488
G1 X136.633 Y68.641 E.01688
G1 X131.36 Y63.368 E.23488
G1 X130.825 Y63.368 E.01685
G1 X136.097 Y68.641 E.23485
G1 X135.562 Y68.641 E.01685
G1 X130.289 Y63.368 E.23488
G1 X129.753 Y63.368 E.01688
G1 X135.026 Y68.641 E.23488
G1 X134.49 Y68.641 E.01688
G1 X129.218 Y63.368 E.23485
G1 X128.682 Y63.368 E.01688
G1 X133.954 Y68.641 E.23485
G1 X133.419 Y68.641 E.01685
G1 X128.146 Y63.368 E.23488
G1 X127.611 Y63.368 E.01685
G1 X132.883 Y68.641 E.23485
G1 X132.347 Y68.641 E.01688
G1 X127.075 Y63.368 E.23485
G1 X126.539 Y63.368 E.01688
G1 X131.812 Y68.641 E.23488
G1 X131.276 Y68.641 E.01688
G1 X126.003 Y63.368 E.23488
G1 X125.468 Y63.368 E.01685
G1 X130.74 Y68.641 E.23485
G1 X130.205 Y68.641 E.01685
G1 X124.932 Y63.368 E.23488
G1 X124.396 Y63.368 E.01688
G1 X129.669 Y68.641 E.23488
G1 X129.133 Y68.641 E.01688
G1 X123.861 Y63.368 E.23485
G1 X123.325 Y63.368 E.01688
G1 X128.597 Y68.641 E.23485
G1 X128.062 Y68.641 E.01685
G1 X122.789 Y63.368 E.23488
G1 X122.254 Y63.368 E.01685
G1 X127.526 Y68.641 E.23485
G1 X126.99 Y68.641 E.01688
G1 X121.718 Y63.368 E.23485
G1 X121.182 Y63.368 E.01688
G1 X126.455 Y68.641 E.23488
G1 X125.919 Y68.641 E.01688
G1 X120.647 Y63.368 E.23485
G1 X120.111 Y63.368 E.01688
G1 X125.383 Y68.641 E.23485
G1 X124.848 Y68.641 E.01685
G1 X119.575 Y63.368 E.23488
G1 X119.039 Y63.368 E.01688
G1 X124.312 Y68.641 E.23488
G1 X123.776 Y68.641 E.01688
G1 X118.504 Y63.368 E.23485
G1 X117.968 Y63.368 E.01688
G1 X123.241 Y68.641 E.23488
G1 X122.705 Y68.641 E.01688
G1 X117.432 Y63.368 E.23488
G1 X116.897 Y63.368 E.01685
G1 X122.169 Y68.641 E.23485
G1 X121.633 Y68.641 E.01688
G1 X116.361 Y63.368 E.23485
G1 X115.825 Y63.368 E.01688
G1 X121.098 Y68.641 E.23488
G1 X120.562 Y68.641 E.01688
G1 X115.29 Y63.368 E.23485
G1 X114.754 Y63.368 E.01688
G1 X120.026 Y68.641 E.23485
G1 X119.491 Y68.641 E.01685
G1 X114.218 Y63.368 E.23488
G1 X113.683 Y63.368 E.01685
G1 X118.955 Y68.641 E.23485
G1 X118.419 Y68.641 E.01688
G1 X113.147 Y63.368 E.23485
G1 X112.611 Y63.368 E.01688
G1 X117.884 Y68.641 E.23488
G1 X117.348 Y68.641 E.01688
G1 X112.075 Y63.368 E.23488
G1 X111.54 Y63.368 E.01685
G1 X116.812 Y68.641 E.23485
G1 X116.277 Y68.641 E.01685
G1 X111.018 Y63.382 E.23425
G1 X111.018 Y63.917 E.01685
G1 X115.741 Y68.641 E.2104
G1 X115.205 Y68.641 E.01688
G1 X111.018 Y64.453 E.18652
G1 X111.018 Y64.989 E.01688
G1 X114.669 Y68.641 E.16265
G1 X114.134 Y68.641 E.01685
G1 X110.935 Y65.441 E.14252
G1 X110.897 Y65.532 E.00311
G1 X110.71 Y65.753 E.00912
G1 X113.598 Y68.641 E.12864
G1 X113.062 Y68.641 E.01688
G1 X110.357 Y65.935 E.12051
G1 X110.28 Y65.957 E.00252
G1 X109.844 Y65.958 E.01373
G1 X112.527 Y68.641 E.11951
G1 X111.991 Y68.641 E.01688
G1 X109.309 Y65.959 E.11946
G1 X108.774 Y65.959 E.01685
G1 X111.455 Y68.641 E.11944
G1 X110.92 Y68.641 E.01685
G1 X108.239 Y65.96 E.11942
G1 X107.705 Y65.961 E.01682
G1 X110.384 Y68.641 E.11935
G1 X109.848 Y68.641 E.01688
G1 X107.17 Y65.962 E.11931
G1 X106.635 Y65.963 E.01685
G1 X109.313 Y68.641 E.11929
G1 X108.777 Y68.641 E.01688
G1 X106.1 Y65.964 E.11924
G1 X105.565 Y65.965 E.01685
G1 X108.241 Y68.641 E.1192
G1 X107.705 Y68.641 E.01688
G1 X105.031 Y65.966 E.11913
G1 X104.496 Y65.967 E.01685
G1 X107.17 Y68.641 E.11911
G1 X106.634 Y68.641 E.01688
G1 X103.792 Y65.798 E.12661
M204 S1000
;WIPE_START
G1 F8640
G1 X106.242 Y68.248 E-.8
;WIPE_END
G1 Z.6 F720
G1 X102.672 Y63.607 F10800
G1 Z.2 F720
G1 E.8 F2100
M204 S800
G1 F1200
M73 P3 R54
G1 X102.433 Y63.368 E.01065
G1 X101.897 Y63.368 E.01688
G1 X102.502 Y63.973 E.02695
G1 X102.502 Y64.509 E.01688
G1 X101.362 Y63.368 E.0508
M73 Q3 S54
G1 X100.826 Y63.368 E.01688
G1 X102.502 Y65.045 E.07468
G1 X102.532 Y65.314 E.00853
G1 X102.623 Y65.532 E.00744
G1 X102.797 Y65.745 E.00866
G1 X103.062 Y65.908 E.0098
G1 X103.426 Y65.968 E.01162
G1 X106.098 Y68.641 E.11904
G1 X105.563 Y68.641 E.01685
G1 X100.29 Y63.368 E.23488
G1 X99.755 Y63.368 E.01685
G1 X105.027 Y68.641 E.23485
G1 X104.491 Y68.641 E.01688
G1 X99.219 Y63.368 E.23485
G1 X98.683 Y63.368 E.01688
G1 X103.956 Y68.641 E.23488
G1 X103.42 Y68.641 E.01688
G1 X98.147 Y63.368 E.23488
G1 X97.612 Y63.368 E.01685
G1 X102.884 Y68.641 E.23485
G1 X102.349 Y68.641 E.01685
M73 P3 R53
G1 X97.076 Y63.368 E.23488
G1 X96.54 Y63.368 E.01688
G1 X101.813 Y68.641 E.23488
G1 X101.277 Y68.641 E.01688
G1 X96.005 Y63.368 E.23485
G1 X95.469 Y63.368 E.01688
G1 X100.741 Y68.641 E.23485
G1 X100.206 Y68.641 E.01685
G1 X94.933 Y63.368 E.23488
G1 X94.398 Y63.368 E.01685
G1 X99.67 Y68.641 E.23485
G1 X99.134 Y68.641 E.01688
G1 X93.862 Y63.368 E.23485
G1 X93.326 Y63.368 E.01688
G1 X98.599 Y68.641 E.23488
G1 X98.063 Y68.641 E.01688
G1 X92.791 Y63.368 E.23485
G1 X92.255 Y63.368 E.01688
G1 X97.527 Y68.641 E.23485
G1 X96.992 Y68.641 E.01685
G1 X91.719 Y63.368 E.23488
G1 X91.183 Y63.368 E.01688
G1 X96.456 Y68.641 E.23488
G1 X95.92 Y68.641 E.01688
G1 X90.648 Y63.368 E.23485
G1 X90.112 Y63.368 E.01688
G1 X95.385 Y68.641 E.23488
G1 X94.849 Y68.641 E.01688
G1 X89.576 Y63.368 E.23488
G1 X89.041 Y63.368 E.01685
G1 X94.313 Y68.641 E.23485
G1 X93.777 Y68.641 E.01688
G1 X88.505 Y63.368 E.23485
G1 X87.969 Y63.368 E.01688
G1 X93.242 Y68.641 E.23488
G1 X92.706 Y68.641 E.01688
G1 X87.434 Y63.368 E.23485
G1 X86.898 Y63.368 E.01688
G1 X92.17 Y68.641 E.23485
G1 X91.635 Y68.641 E.01685
G1 X86.362 Y63.368 E.23488
G1 X85.827 Y63.368 E.01685
G1 X91.099 Y68.641 E.23485
G1 X90.563 Y68.641 E.01688
G1 X85.291 Y63.368 E.23485
G1 X84.755 Y63.368 E.01688
G1 X90.028 Y68.641 E.23488
G1 X89.492 Y68.641 E.01688
G1 X84.219 Y63.368 E.23488
G1 X83.684 Y63.368 E.01685
G1 X88.956 Y68.641 E.23485
G1 X88.421 Y68.641 E.01685
G1 X83.148 Y63.368 E.23488
G1 X82.612 Y63.368 E.01688
G1 X87.885 Y68.641 E.23488
G1 X87.349 Y68.641 E.01688
G1 X82.077 Y63.368 E.23485
G1 X81.541 Y63.368 E.01688
G1 X86.813 Y68.641 E.23485
G1 X86.278 Y68.641 E.01685
G1 X81.005 Y63.368 E.23488
G1 X80.47 Y63.368 E.01685
G1 X85.742 Y68.641 E.23485
G1 X85.206 Y68.641 E.01688
G1 X79.934 Y63.368 E.23485
G1 X79.398 Y63.368 E.01688
G1 X84.671 Y68.641 E.23488
G1 X84.135 Y68.641 E.01688
G1 X78.863 Y63.368 E.23485
G1 X78.327 Y63.368 E.01688
G1 X83.599 Y68.641 E.23485
G1 X83.064 Y68.641 E.01685
G1 X77.791 Y63.368 E.23488
G1 X77.255 Y63.368 E.01688
